src/assets/icons/wifi.svg

<svg width="51" height="36" viewBox="0 0 51 36" fill="none" xmlns="http://www.w3.org/2000/svg">
<g clip-path="url(#clip0_1_105)">
<path d="M15.1175 23.1997C20.657 17.6934 29.651 17.6934 35.1906 23.1997C35.7819 23.7874 35.7819 23.7874 35.7819 23.7874C36.3109 24.4679 37.5869 24.2514 38.5827 23.2615L39.3608 22.4882C40.3567 21.4983 40.7301 20.1372 40.1388 19.4566C40.1388 19.4566 40.1388 19.4566 39.5475 18.8688C31.6116 10.9806 18.6964 10.9806 10.7606 18.8688C10.1692 19.4566 10.1692 19.4566 10.1692 19.4566C9.60905 20.1372 9.95138 21.4983 10.9472 22.4882L11.7253 23.2615C12.7211 24.2514 13.9971 24.4989 14.5262 23.7874C14.5573 23.7874 14.5573 23.7874 15.1175 23.1997Z" fill="#335999"/>
<path d="M28.8107 32.9747C26.819 34.9854 23.5513 34.9545 21.5284 32.9747C19.5055 30.9949 19.5055 27.7468 21.5284 25.7361C23.5202 23.7563 26.7878 23.7563 28.8107 25.7361C30.8025 27.7468 30.8025 30.9639 28.8107 32.9747Z" fill="#335999"/>
<path d="M1.54846 10.3312C1.08165 10.7952 1.08165 10.7952 1.08165 10.7952C0.614833 11.3521 1.01941 12.5894 2.01528 13.5793L2.76219 14.3217C3.75806 15.3116 4.97178 15.6519 5.46972 15.0951C5.46972 15.0951 5.46972 15.0951 5.96766 14.6002C6.06102 14.5073 6.12326 14.4455 6.21663 14.3526C16.6733 3.95873 33.6654 3.95873 44.1221 14.3526C44.3088 14.5382 44.4644 14.6929 44.6512 14.8785C45.0246 15.2807 45.0246 15.2807 45.0246 15.2807C45.4291 15.7447 46.5806 15.3116 47.5766 14.3217L48.3234 13.5793C49.3193 12.5894 49.8173 11.383 49.4127 10.9499C49.4127 10.9499 49.4127 10.9499 49.0081 10.5477C48.8525 10.3622 48.6658 10.2075 48.5102 10.0219C35.626 -2.75403 14.7126 -2.75403 1.85967 10.0219C1.76631 10.1147 1.64183 10.2075 1.54846 10.3312Z" fill="#335999"/>
</g>
<defs>
<clipPath id="clip0_1_105">
<rect width="49.5833" height="35" fill="white" transform="translate(0.888325 0.439941)"/>
</clipPath>
</defs>
</svg>

<svg xmlns="http://www.w3.org/2000/svg" fill="none" viewBox="0 0 51 36">
  <g fill="#335999" clip-path="url(#a)">
    <path d="M15.1 23.2a14.3 14.3 0 0 1 20 0l.7.6c.5.7 1.8.5 2.8-.5l.8-.8c1-1 1.3-2.4.7-3l-.6-.6c-7.9-8-20.8-8-28.7 0l-.6.6c-.6.6-.2 2 .7 3l.8.8c1 1 2.3 1.2 2.8.5l.6-.6Z"/>
    <path d="M28.8 33c-2 2-5.2 2-7.3 0a5 5 0 0 1 0-7.3 5.1 5.1 0 1 1 7.3 7.2ZM1.5 10.3l-.4.5c-.5.6 0 1.8 1 2.8l.7.7c1 1 2.2 1.4 2.7.8l.5-.5.2-.2a27 27 0 0 1 38 0l.5.5.3.4c.4.4 1.6 0 2.6-1l.7-.7c1-1 1.5-2.2 1.1-2.7l-.4-.4-.5-.5A33.2 33.2 0 0 0 2 10l-.4.3Z"/>
  </g>
  <defs>
    <clipPath id="a">
      <path fill="#fff" d="M0 0h49.6v35H0z" transform="translate(.9 .4)"/>
    </clipPath>
  </defs>
</svg>
